assets/logos/twitter.svg

<svg width="80" height="80" viewBox="0 0 80 80" fill="none" xmlns="http://www.w3.org/2000/svg">
<path d="M45.2775 35.0996L68.5906 8H63.0662L42.8234 31.5302L26.6555 8H8.00781L32.4568 43.5819L8.00781 72H13.5326L34.9095 47.1513L51.9839 72H70.6317L45.2761 35.0996H45.2775ZM37.7106 43.8954L35.2334 40.3522L15.5232 12.159H24.009L39.9153 34.9118L42.3925 38.455L63.0688 68.0302H54.583L37.7106 43.8967V43.8954Z" fill="black"/>
</svg>

<svg xmlns="http://www.w3.org/2000/svg" width="80" height="80" fill="none" viewBox="0 0 80 80"><path fill="#000" d="M45.278 35.1 68.59 8h-5.525L42.823 31.53 26.656 8H8.008l24.449 35.582L8.007 72h5.526L34.91 47.151 51.984 72h18.648L45.276 35.1zm-7.567 8.795-2.478-3.543-19.71-28.193h8.486l15.906 22.753 2.477 3.543L63.07 68.03h-8.486L37.711 43.897z"/></svg>
